public/style/workarea/images/icons/exe-open-icon.svg

<svg fill="none" height="17" viewBox="0 0 17 17" width="17" xmlns="http://www.w3.org/2000/svg"><g stroke="#0ba1a1" stroke-linecap="round" stroke-linejoin="round" stroke-width="1.5"><path d="m4.74243 5.0025v-1.98186c0-.66274.53726-1.2 1.2-1.2h7.13337c.3536 0 .6927.14047.9428.39052.25.25005.3905.58919.3905.94281v10.00003c0 .3536-.1405.6927-.3905.9428-.2501.25-.5892.3905-.9428.3905h-7.13337c-.66274 0-1.2-.5373-1.2-1.2v-1.7848"/><path d="m8.07577 5.48735 2.66663 2.66666-2.66664 2.66669"/><path d="m10.7424 8.15399h-8.66664"/></g></svg>

<svg width="17" height="17" viewBox="0 0 17 17" fill="none" xmlns="http://www.w3.org/2000/svg">
<path d="M4.74243 5.0025L4.74243 3.02064C4.74243 2.3579 5.27969 1.82064 5.94243 1.82064L13.0758 1.82064C13.4294 1.82064 13.7685 1.96111 14.0186 2.21116C14.2686 2.46121 14.4091 2.80035 14.4091 3.15397L14.4091 13.154C14.4091 13.5076 14.2686 13.8467 14.0186 14.0968C13.7685 14.3468 13.4294 14.4873 13.0758 14.4873L5.94243 14.4873C5.27969 14.4873 4.74243 13.95 4.74243 13.2873L4.74243 11.5025" stroke="#0BA1A1" stroke-width="1.5" stroke-linecap="round" stroke-linejoin="round"/>
<path d="M8.07577 5.48735L10.7424 8.15401L8.07576 10.8207" stroke="#0BA1A1" stroke-width="1.5" stroke-linecap="round" stroke-linejoin="round"/>
<path d="M10.7424 8.15399L2.07576 8.15399" stroke="#0BA1A1" stroke-width="1.5" stroke-linecap="round" stroke-linejoin="round"/>
</svg>
